images/Card_catalog.svg

<svg width="32" height="32" viewBox="0 0 32 32" fill="none" xmlns="http://www.w3.org/2000/svg">
<rect width="32" height="32" rx="16" fill="#FF2F64"/>
<path fill-rule="evenodd" clip-rule="evenodd" d="M9.16667 9.25C8.79848 9.25 8.5 9.54848 8.5 9.91667C8.5 10.2849 8.79848 10.5833 9.16667 10.5833H10.9379L11.4054 12.9187C11.4082 12.9367 11.4118 12.9544 11.416 12.9718L12.3834 17.8052L12.3835 17.8057C12.4671 18.2257 12.6956 18.603 13.0292 18.8715C13.3611 19.1387 13.7759 19.2813 14.2018 19.2748H19.8225C20.2484 19.2813 20.6633 19.1387 20.9952 18.8715C21.3289 18.6029 21.5575 18.2254 21.641 17.8052L21.641 17.8052L21.642 17.8002L22.5691 12.9387C22.6063 12.7435 22.5545 12.542 22.4279 12.3889C22.3012 12.2358 22.1129 12.1472 21.9142 12.1472H12.6107L12.1381 9.78583C12.0757 9.47426 11.8021 9.25 11.4844 9.25H9.16667ZM13.691 17.5444L12.8776 13.4805H21.1084L20.3328 17.5474C20.31 17.6599 20.2485 17.7609 20.1591 17.8329C20.0691 17.9053 19.9565 17.9438 19.841 17.9416L19.841 17.9415H19.8282H14.1961V17.9414L14.1834 17.9416C14.0679 17.9438 13.9553 17.9053 13.8653 17.8329C13.7753 17.7605 13.7137 17.6587 13.6912 17.5454L13.691 17.5444ZM12.5574 21.5054C12.5574 20.8175 13.1151 20.2597 13.8031 20.2597C14.491 20.2597 15.0488 20.8175 15.0488 21.5054C15.0488 22.1934 14.491 22.7511 13.8031 22.7511C13.1151 22.7511 12.5574 22.1934 12.5574 21.5054ZM18.9307 21.5054C18.9307 20.8175 19.4884 20.2597 20.1764 20.2597C20.8644 20.2597 21.4221 20.8175 21.4221 21.5054C21.4221 22.1934 20.8644 22.7511 20.1764 22.7511C19.4884 22.7511 18.9307 22.1934 18.9307 21.5054Z" fill="#FCFCFC"/>
</svg>

<svg width="32" height="32" fill="none" xmlns="http://www.w3.org/2000/svg">
  <rect width="32" height="32" rx="16" fill="#FF2F64"/>
  <path fill-rule="evenodd" clip-rule="evenodd" d="M9.17 9.25a.67.67 0 0 0 0 1.33h1.77l.47 2.34v.05l.97 4.84a1.83 1.83 0 0 0 1.82 1.46h5.62a1.83 1.83 0 0 0 1.82-1.46v-.01l.93-4.86a.67.67 0 0 0-.66-.8h-9.3l-.47-2.35a.67.67 0 0 0-.66-.54H9.17Zm4.52 8.3-.81-4.07h8.23l-.78 4.07a.5.5 0 0 1-.49.4h-5.66a.5.5 0 0 1-.49-.4Zm-1.13 3.96a1.25 1.25 0 1 1 2.49 0 1.25 1.25 0 0 1-2.5 0Zm6.37 0a1.25 1.25 0 1 1 2.5 0 1.25 1.25 0 0 1-2.5 0Z" fill="#FCFCFC"/>
</svg>
